;FLAVOR:Marlin
;TIME:974
;Filament used: 0.5928m
;Layer height: 0.2
;MINX:186.6
;MINY:168.6
;MINZ:0.2
;MAXX:213.4
;MAXY:231.4
;MAXZ:2.675
;POSTPROCESSED
;Generated with Cura_SteamEngine 4.12.0
M140 S60
M105
M190 S60
M104 S190
M105
M109 S190
M82 ;absolute extrusion mode
M107 ;Start with the fan off
G21 ;Set units to millimeters
G91 ;Change to relative positioning mode for retract filament and nozzle lifting
G1 F200 E-3 ;Retract 3mm filament for a clean start
G92 E0 ;Zero the extruded length
G1 F1000 Z5 ;Lift the nozzle 5mm before homing axes
G90 ;Absolute positioning
M82 ;Set extruder to absolute mode too
G28 X0 Y0 ;First move X/Y to min endstops
G28 Z0 ;Then move Z to min endstops
G1 F1000 Z15 ;After homing lift the nozzle 15mm before start printing

G92 E0
G92 E0
G1 F2400 E-7
;LAYER_COUNT:13
;LAYER:0
M106 S255
M204 S3000
M205 X10 Y10
G1 F600 Z0.275
G0 F3000 X188.05 Y170.963 Z0.275
M204 S1800
M205 X8 Y8
;TYPE:SKIRT
G1 F600 Z0.2
G1 F2400 E0
G1 X188.533 Y170.435 E0.03332
G1 X189.071 Y169.964 E0.06662
G1 X189.659 Y169.556 E0.09994
G1 X190.288 Y169.216 E0.13324
G1 X190.952 Y168.949 E0.16656
G1 X191.641 Y168.757 E0.19987
G1 X192.347 Y168.643 E0.23317
G1 X193.151 Y168.603 E0.27065
G1 X193.33 Y168.6 E0.27899
G1 X206.293 Y168.6 E0.8826
G1 X207.083 Y168.611 E0.91939
G1 X207.796 Y168.661 E0.95267
G1 X208.5 Y168.79 E0.986
G1 X209.184 Y168.998 E1.01929
G1 X209.841 Y169.28 E1.05258
G1 X210.463 Y169.634 E1.0859
G1 X211.041 Y170.055 E1.1192
G1 X211.569 Y170.538 E1.15252
G1 X212.039 Y171.076 E1.18578
G1 X212.447 Y171.664 E1.21911
G1 X212.786 Y172.294 E1.25242
G1 X213.053 Y172.957 E1.2857
G1 X213.244 Y173.647 E1.31904
G1 X213.357 Y174.353 E1.35233
G1 X213.397 Y175.15 E1.38949
G1 X213.4 Y175.33 E1.39788
G1 X213.4 Y224.343 E3.68013
G1 X213.391 Y225.07 E3.71398
G1 X213.342 Y225.784 E3.74731
G1 X213.214 Y226.488 E3.78062
G1 X213.008 Y227.173 E3.81393
G1 X212.727 Y227.83 E3.84721
G1 X212.374 Y228.453 E3.88055
G1 X211.954 Y229.032 E3.91385
G1 X211.472 Y229.56 E3.94714
G1 X210.935 Y230.032 E3.98044
G1 X210.347 Y230.44 E4.01376
G1 X209.718 Y230.781 E4.04708
G1 X209.055 Y231.049 E4.08038
G1 X208.366 Y231.241 E4.11368
G1 X207.66 Y231.356 E4.14699
G1 X206.849 Y231.397 E4.1848
G1 X206.67 Y231.4 E4.19314
G1 X193.624 Y231.399 E4.80061
G1 X192.926 Y231.39 E4.83312
G1 X192.213 Y231.341 E4.8664
G1 X191.509 Y231.213 E4.89971
G1 X190.824 Y231.007 E4.93302
G1 X190.167 Y230.725 E4.96631
G1 X189.545 Y230.372 E4.99962
G1 X188.966 Y229.952 E5.03292
G1 X188.437 Y229.47 E5.06625
G1 X187.966 Y228.932 E5.09954
G1 X187.558 Y228.345 E5.13283
G1 X187.218 Y227.715 E5.16616
G1 X186.95 Y227.052 E5.19946
G1 X186.758 Y226.363 E5.23277
G1 X186.644 Y225.657 E5.26607
G1 X186.602 Y224.831 E5.30458
G1 X186.6 Y224.658 E5.31264
G1 X186.601 Y175.587 E7.59759
G1 X186.61 Y174.922 E7.62856
G1 X186.659 Y174.209 E7.66183
G1 X186.788 Y173.505 E7.69516
G1 X186.995 Y172.821 E7.72844
G1 X187.277 Y172.163 E7.76177
G1 X187.63 Y171.541 E7.79507
G1 X188.05 Y170.963 E7.82834
M204 S3000
M205 X10 Y10
G0 F3000 X188.603 Y171.176
M204 S1800
M205 X8 Y8
G1 F2400 X189.08 Y170.688 E7.86012
G1 X189.612 Y170.259 E7.89194
G1 X190.19 Y169.894 E7.92377
G1 X190.807 Y169.6 E7.9556
G1 X191.453 Y169.38 E7.98738
G1 X192.121 Y169.237 E8.01918
G1 X192.845 Y169.171 E8.05304
G1 X193.33 Y169.16 E8.07563
G1 X206.293 Y169.16 E8.67924
G1 X207.075 Y169.171 E8.71566
G1 X207.756 Y169.22 E8.74745
G1 X208.427 Y169.349 E8.77926
G1 X209.078 Y169.556 E8.81107
G1 X209.701 Y169.837 E8.8429
G1 X210.287 Y170.189 E8.87473
G1 X210.827 Y170.607 E8.90653
G1 X211.315 Y171.085 E8.93833
G1 X211.744 Y171.617 E8.97016
G1 X212.108 Y172.195 E9.00196
G1 X212.402 Y172.812 E9.03379
G1 X212.621 Y173.459 E9.06559
G1 X212.764 Y174.127 E9.0974
G1 X212.829 Y174.846 E9.13102
G1 X212.84 Y175.33 E9.15356
G1 X212.84 Y224.336 E11.43549
G1 X212.831 Y225.063 E11.46934
G1 X212.782 Y225.745 E11.50118
G1 X212.654 Y226.416 E11.53299
G1 X212.449 Y227.068 E11.56481
G1 X212.169 Y227.691 E11.59662
G1 X211.819 Y228.277 E11.6284
G1 X211.402 Y228.819 E11.66024
G1 X210.925 Y229.308 E11.69205
G1 X210.394 Y229.737 E11.72384
G1 X209.816 Y230.102 E11.75567
G1 X209.2 Y230.397 E11.78747
G1 X208.553 Y230.618 E11.81931
G1 X207.885 Y230.762 E11.85113
G1 X207.155 Y230.829 E11.88526
G1 X206.67 Y230.84 E11.90785
G1 X193.632 Y230.84 E12.51496
G1 X192.934 Y230.831 E12.54746
G1 X192.252 Y230.782 E12.5793
G1 X191.581 Y230.654 E12.61111
G1 X190.93 Y230.448 E12.6429
G1 X190.306 Y230.168 E12.67475
G1 X189.72 Y229.817 E12.70656
G1 X189.179 Y229.4 E12.73836
G1 X188.69 Y228.922 E12.77021
G1 X188.261 Y228.391 E12.80199
G1 X187.896 Y227.813 E12.83382
G1 X187.602 Y227.197 E12.86561
G1 X187.381 Y226.55 E12.89744
G1 X187.237 Y225.882 E12.92926
G1 X187.171 Y225.149 E12.96353
G1 X187.16 Y224.658 E12.9864
G1 X187.161 Y175.595 E15.27098
G1 X187.17 Y174.93 E15.30195
G1 X187.219 Y174.249 E15.33374
G1 X187.347 Y173.577 E15.36559
G1 X187.553 Y172.926 E15.39739
G1 X187.834 Y172.303 E15.42921
G1 X188.185 Y171.717 E15.46102
G1 X188.603 Y171.176 E15.49285
M204 S3000
M205 X10 Y10
G0 F3000 X188.74 Y171.902
M204 S1800
M205 X8 Y8
G1 F2400 X189.154 Y171.401 E15.52312
G1 X189.626 Y170.955 E15.55335
G1 X190.149 Y170.571 E15.58357
G1 X190.716 Y170.253 E15.61384
G1 X191.317 Y170.007 E15.64408
G1 X191.944 Y169.837 E15.67433
G1 X192.861 Y169.731 E15.71731
G1 X193.33 Y169.72 E15.73915
G1 X206.293 Y169.72 E16.34277
G1 X207.067 Y169.731 E16.37881
G1 X207.714 Y169.78 E16.40902
G1 X208.351 Y169.908 E16.43928
G1 X208.967 Y170.114 E16.46952
G1 X209.554 Y170.394 E16.49981
G1 X210.101 Y170.743 E16.53002
G1 X210.602 Y171.157 E16.56028
G1 X211.047 Y171.63 E16.59052
G1 X211.432 Y172.154 E16.6208
G1 X211.749 Y172.721 E16.65105
G1 X211.994 Y173.322 E16.68127
G1 X212.163 Y173.949 E16.71151
G1 X212.269 Y174.862 E16.75431
G1 X212.28 Y175.33 E16.7761
G1 X212.28 Y224.329 E19.0577
G1 X212.271 Y225.056 E19.09156
G1 X212.223 Y225.704 E19.12181
G1 X212.095 Y226.341 E19.15207
G1 X211.891 Y226.958 E19.18233
G1 X211.612 Y227.545 E19.21259
G1 X211.264 Y228.093 E19.24282
G1 X210.851 Y228.594 E19.27305
G1 X210.379 Y229.041 E19.30332
G1 X209.856 Y229.426 E19.33356
G1 X209.29 Y229.744 E19.36379
G1 X208.688 Y229.991 E19.39409
G1 X208.062 Y230.161 E19.4243
G1 X207.139 Y230.269 E19.46757
G1 X206.67 Y230.28 E19.48941
G1 X193.639 Y230.28 E20.09619
G1 X192.941 Y230.271 E20.1287
G1 X192.293 Y230.222 E20.15896
G1 X191.656 Y230.095 E20.1892
G1 X191.04 Y229.89 E20.21943
G1 X190.453 Y229.611 E20.24969
G1 X189.905 Y229.262 E20.27995
G1 X189.404 Y228.849 E20.31018
G1 X188.957 Y228.377 E20.34045
G1 X188.572 Y227.854 E20.37069
G1 X188.254 Y227.287 E20.40096
G1 X188.008 Y226.686 E20.4312
G1 X187.838 Y226.059 E20.46145
G1 X187.731 Y225.134 E20.50481
G1 X187.72 Y224.658 E20.52698
G1 X187.72 Y175.603 E22.81119
G1 X187.729 Y174.938 E22.84215
G1 X187.778 Y174.29 E22.87241
G1 X187.906 Y173.653 E22.90267
G1 X188.111 Y173.036 E22.93294
G1 X188.391 Y172.45 E22.96318
G1 X188.74 Y171.902 E22.99344
M204 S3000
M205 X10 Y10
G1 F2400 E15.99344
;MESH:WE816case_logo.stl
G0 F3000 X192.335 Y175.854
G0 X193.854 Y175.854
G0 X205.6 Y223.6
M204 S1800
M205 X8 Y8
;TYPE:WALL-INNER
G1 F2400 E22.99344
G1 F1200 X194.4 Y223.6 E23.51495
G1 X194.4 Y176.4 E25.71278
G1 X205.6 Y176.4 E26.2343
G1 X205.6 Y223.6 E28.43213
M204 S3000
M205 X10 Y10
G0 F3000 X206.16 Y224.16
M204 S1800
M205 X8 Y8
G1 F1200 X193.84 Y224.16 E29.0058
G1 X193.84 Y175.84 E31.25579
G1 X206.16 Y175.84 E31.82946
G1 X206.16 Y224.16 E34.07944
M204 S3000
M205 X10 Y10
G0 F3000 X206.72 Y224.72
M204 S1800
M205 X8 Y8
;TYPE:WALL-OUTER
G1 F1200 X193.28 Y224.72 E34.70526
G1 X193.28 Y175.28 E37.00739
G1 X206.72 Y175.28 E37.63322
G1 X206.72 Y224.72 E39.93535
M204 S3000
M205 X10 Y10
G0 F3000 X206.52 Y224.72
G0 X206.09 Y224.09
G0 X205.05 Y223.05
M204 S1800
M205 X8 Y8
;TYPE:SKIN
G1 F1200 X194.95 Y223.05 E40.40565
G1 X194.95 Y176.95 E42.55226
G1 X205.05 Y176.95 E43.02256
G1 X205.05 Y223.05 E45.16917
M204 S3000
M205 X10 Y10
G0 F3000 X195.862 Y222.788
M204 S1800
M205 X8 Y8
G1 F1200 X195.208 Y222.135 E45.2122
M204 S3000
M205 X10 Y10
G0 F3000 X195.208 Y221.343
M204 S1800
M205 X8 Y8
G1 F1200 X196.654 Y222.788 E45.30739
M204 S3000
M205 X10 Y10
G0 F3000 X197.446 Y222.788
M204 S1800
M205 X8 Y8
G1 F1200 X195.208 Y220.551 E45.45473
M204 S3000
M205 X10 Y10
G0 F3000 X195.208 Y219.759
M204 S1800
M205 X8 Y8
G1 F1200 X198.238 Y222.788 E45.65423
M204 S3000
M205 X10 Y10
G0 F3000 X199.03 Y222.788
M204 S1800
M205 X8 Y8
G1 F1200 X195.208 Y218.967 E45.90588
M204 S3000
M205 X10 Y10
G0 F3000 X195.208 Y218.175
M204 S1800
M205 X8 Y8
G1 F1200 X199.822 Y222.788 E46.20969
M204 S3000
M205 X10 Y10
G0 F3000 X200.613 Y222.788
M204 S1800
M205 X8 Y8
G1 F1200 X195.208 Y217.383 E46.56562
M204 S3000
M205 X10 Y10
G0 F3000 X195.208 Y216.591
M204 S1800
M205 X8 Y8
G1 F1200 X201.405 Y222.788 E46.9737
M204 S3000
M205 X10 Y10
G0 F3000 X202.197 Y222.788
M204 S1800
M205 X8 Y8
G1 F1200 X195.208 Y215.799 E47.43394
M204 S3000
M205 X10 Y10
G0 F3000 X195.208 Y215.007
M204 S1800
M205 X8 Y8
G1 F1200 X202.989 Y222.788 E47.94633
M204 S3000
M205 X10 Y10
G0 F3000 X203.781 Y222.788
M204 S1800
M205 X8 Y8
G1 F1200 X195.208 Y214.215 E48.51088
M204 S3000
M205 X10 Y10
G0 F3000 X195.208 Y213.423
M204 S1800
M205 X8 Y8
G1 F1200 X204.573 Y222.788 E49.12758
M204 S3000
M205 X10 Y10
G0 F3000 X204.79 Y222.213
M204 S1800
M205 X8 Y8
G1 F1200 X195.208 Y212.631 E49.75857
M204 S3000
M205 X10 Y10
G0 F3000 X195.208 Y211.839
M204 S1800
M205 X8 Y8
G1 F1200 X204.79 Y221.421 E50.38956
M204 S3000
M205 X10 Y10
G0 F3000 X204.79 Y220.629
M204 S1800
M205 X8 Y8
G1 F1200 X195.208 Y211.048 E51.02052
M204 S3000
M205 X10 Y10
G0 F3000 X195.208 Y210.256
M204 S1800
M205 X8 Y8
G1 F1200 X204.79 Y219.837 E51.65148
M204 S3000
M205 X10 Y10
G0 F3000 X204.79 Y219.045
M204 S1800
M205 X8 Y8
G1 F1200 X195.208 Y209.464 E52.28243
M204 S3000
M205 X10 Y10
G0 F3000 X195.208 Y208.672
M204 S1800
M205 X8 Y8
G1 F1200 X204.79 Y218.253 E52.91339
M204 S3000
M205 X10 Y10
G0 F3000 X204.79 Y217.461
M204 S1800
M205 X8 Y8
G1 F1200 X195.208 Y207.88 E53.54435
M204 S3000
M205 X10 Y10
G0 F3000 X195.208 Y207.088
M204 S1800
M205 X8 Y8
G1 F1200 X204.79 Y216.669 E54.17531
M204 S3000
M205 X10 Y10
G0 F3000 X204.79 Y215.877
M204 S1800
M205 X8 Y8
G1 F1200 X195.208 Y206.296 E54.80627
M204 S3000
M205 X10 Y10
G0 F3000 X195.208 Y205.504
M204 S1800
M205 X8 Y8
G1 F1200 X204.79 Y215.085 E55.43722
M204 S3000
M205 X10 Y10
G0 F3000 X204.79 Y214.293
M204 S1800
M205 X8 Y8
G1 F1200 X195.208 Y204.712 E56.06818
M204 S3000
M205 X10 Y10
G0 F3000 X195.208 Y203.92
M204 S1800
M205 X8 Y8
G1 F1200 X204.79 Y213.501 E56.69914
M204 S3000
M205 X10 Y10
G0 F3000 X204.79 Y212.709
M204 S1800
M205 X8 Y8
G1 F1200 X195.208 Y203.128 E57.3301
M204 S3000
M205 X10 Y10
G0 F3000 X195.208 Y202.336
M204 S1800
M205 X8 Y8
G1 F1200 X204.79 Y211.917 E57.96106
M204 S3000
M205 X10 Y10
G0 F3000 X204.79 Y211.125
M204 S1800
M205 X8 Y8
G1 F1200 X195.208 Y201.544 E58.59202
M204 S3000
M205 X10 Y10
G0 F3000 X195.208 Y200.752
M204 S1800
M205 X8 Y8
G1 F1200 X204.79 Y210.333 E59.22297
M204 S3000
M205 X10 Y10
G0 F3000 X204.79 Y209.541
M204 S1800
M205 X8 Y8
G1 F1200 X195.208 Y199.96 E59.85393
M204 S3000
M205 X10 Y10
G0 F3000 X195.208 Y199.168
M204 S1800
M205 X8 Y8
G1 F1200 X204.79 Y208.749 E60.48489
M204 S3000
M205 X10 Y10
G0 F3000 X204.79 Y207.957
M204 S1800
M205 X8 Y8
G1 F1200 X195.208 Y198.376 E61.11585
M204 S3000
M205 X10 Y10
G0 F3000 X195.208 Y197.584
M204 S1800
M205 X8 Y8
G1 F1200 X204.79 Y207.166 E61.74684
M204 S3000
M205 X10 Y10
G0 F3000 X204.79 Y206.374
M204 S1800
M205 X8 Y8
G1 F1200 X195.208 Y196.792 E62.37783
M204 S3000
M205 X10 Y10
G0 F3000 X195.208 Y196
M204 S1800
M205 X8 Y8
G1 F1200 X204.79 Y205.582 E63.00882
M204 S3000
M205 X10 Y10
G0 F3000 X204.79 Y204.79
M204 S1800
M205 X8 Y8
G1 F1200 X195.208 Y195.208 E63.63981
M204 S3000
M205 X10 Y10
G0 F3000 X195.208 Y194.416
M204 S1800
M205 X8 Y8
G1 F1200 X204.79 Y203.998 E64.2708
M204 S3000
M205 X10 Y10
G0 F3000 X204.79 Y203.206
M204 S1800
M205 X8 Y8
G1 F1200 X195.208 Y193.624 E64.90179
M204 S3000
M205 X10 Y10
G0 F3000 X195.208 Y192.832
M204 S1800
M205 X8 Y8
G1 F1200 X204.79 Y202.414 E65.53279
M204 S3000
M205 X10 Y10
G0 F3000 X204.79 Y201.622
M204 S1800
M205 X8 Y8
G1 F1200 X195.208 Y192.041 E66.16374
M204 S3000
M205 X10 Y10
G0 F3000 X195.208 Y191.249
M204 S1800
M205 X8 Y8
G1 F1200 X204.79 Y200.83 E66.7947
M204 S3000
M205 X10 Y10
G0 F3000 X204.79 Y200.038
M204 S1800
M205 X8 Y8
G1 F1200 X195.208 Y190.457 E67.42566
M204 S3000
M205 X10 Y10
G0 F3000 X195.208 Y189.665
M204 S1800
M205 X8 Y8
G1 F1200 X204.79 Y199.246 E68.05662
M204 S3000
M205 X10 Y10
G0 F3000 X204.79 Y198.454
M204 S1800
M205 X8 Y8
G1 F1200 X195.208 Y188.873 E68.68758
M204 S3000
M205 X10 Y10
G0 F3000 X195.208 Y188.081
M204 S1800
M205 X8 Y8
G1 F1200 X204.79 Y197.662 E69.31853
M204 S3000
M205 X10 Y10
G0 F3000 X204.79 Y196.87
M204 S1800
M205 X8 Y8
G1 F1200 X195.208 Y187.289 E69.94949
M204 S3000
M205 X10 Y10
G0 F3000 X195.208 Y186.497
M204 S1800
M205 X8 Y8
G1 F1200 X204.79 Y196.078 E70.58045
M204 S3000
M205 X10 Y10
G0 F3000 X204.79 Y195.286
M204 S1800
M205 X8 Y8
G1 F1200 X195.208 Y185.705 E71.21141
M204 S3000
M205 X10 Y10
G0 F3000 X195.208 Y184.913
M204 S1800
M205 X8 Y8
G1 F1200 X204.79 Y194.494 E71.84237
M204 S3000
M205 X10 Y10
G0 F3000 X204.79 Y193.702
M204 S1800
M205 X8 Y8
G1 F1200 X195.208 Y184.121 E72.47332
M204 S3000
M205 X10 Y10
G0 F3000 X195.208 Y183.329
M204 S1800
M205 X8 Y8
G1 F1200 X204.79 Y192.91 E73.10428
M204 S3000
M205 X10 Y10
G0 F3000 X204.79 Y192.118
M204 S1800
M205 X8 Y8
G1 F1200 X195.208 Y182.537 E73.73524
M204 S3000
M205 X10 Y10
G0 F3000 X195.208 Y181.745
M204 S1800
M205 X8 Y8
G1 F1200 X204.79 Y191.326 E74.3662
M204 S3000
M205 X10 Y10
G0 F3000 X204.79 Y190.534
M204 S1800
M205 X8 Y8
G1 F1200 X195.208 Y180.953 E74.99716
M204 S3000
M205 X10 Y10
G0 F3000 X195.208 Y180.161
M204 S1800
M205 X8 Y8
G1 F1200 X204.79 Y189.742 E75.62812
M204 S3000
M205 X10 Y10
G0 F3000 X204.79 Y188.95
M204 S1800
M205 X8 Y8
G1 F1200 X195.208 Y179.369 E76.25907
M204 S3000
M205 X10 Y10
G0 F3000 X195.208 Y178.577
M204 S1800
M205 X8 Y8
G1 F1200 X204.79 Y188.158 E76.89003
M204 S3000
M205 X10 Y10
G0 F3000 X204.79 Y187.367
M204 S1800
M205 X8 Y8
G1 F1200 X195.208 Y177.785 E77.52102
M204 S3000
M205 X10 Y10
G0 F3000 X195.425 Y177.21
M204 S1800
M205 X8 Y8
G1 F1200 X204.79 Y186.575 E78.13772
M204 S3000
M205 X10 Y10
G0 F3000 X204.79 Y185.783
M204 S1800
M205 X8 Y8
G1 F1200 X196.217 Y177.21 E78.70227
M204 S3000
M205 X10 Y10
G0 F3000 X197.009 Y177.21
M204 S1800
M205 X8 Y8
G1 F1200 X204.79 Y184.991 E79.21466
M204 S3000
M205 X10 Y10
G0 F3000 X204.79 Y184.199
M204 S1800
M205 X8 Y8
G1 F1200 X197.801 Y177.21 E79.6749
M204 S3000
M205 X10 Y10
G0 F3000 X198.593 Y177.21
M204 S1800
M205 X8 Y8
G1 F1200 X204.79 Y183.407 E80.08298
M204 S3000
M205 X10 Y10
G0 F3000 X204.79 Y182.615
M204 S1800
M205 X8 Y8
G1 F1200 X199.385 Y177.21 E80.43891
M204 S3000
M205 X10 Y10
G0 F3000 X200.176 Y177.21
M204 S1800
M205 X8 Y8
G1 F1200 X204.79 Y181.823 E80.74272
M204 S3000
M205 X10 Y10
G0 F3000 X204.79 Y181.031
M204 S1800
M205 X8 Y8
G1 F1200 X200.968 Y177.21 E80.99437
M204 S3000
M205 X10 Y10
G0 F3000 X201.76 Y177.21
M204 S1800
M205 X8 Y8
G1 F1200 X204.79 Y180.239 E81.19387
M204 S3000
M205 X10 Y10
G0 F3000 X204.79 Y179.447
M204 S1800
M205 X8 Y8
G1 F1200 X202.552 Y177.21 E81.34121
M204 S3000
M205 X10 Y10
G0 F3000 X203.344 Y177.21
M204 S1800
M205 X8 Y8
G1 F1200 X204.79 Y178.655 E81.4364
M204 S3000
M205 X10 Y10
G0 F3000 X204.79 Y177.863
M204 S1800
M205 X8 Y8
G1 F1200 X204.136 Y177.21 E81.47943
M204 S3000
M205 X10 Y10
G1 F2400 E74.47943
;MESH:NONMESH
G0 F600 X204.136 Y177.21 Z0.4
G0 F3000 X206 Y224
;TIME_ELAPSED:87.232104
;LAYER:1
M204 S1800
M205 X8 Y8
;TYPE:WALL-INNER
;MESH:WE816case_logo.stl
G1 F2400 E81.47943
G1 F1800 X194 Y224 E81.87856
G1 X194 Y176 E83.47504
G1 X206 Y176 E83.87416
G1 X206 Y224 E85.47065
M204 S3000
M205 X10 Y10
G0 F4500 X206.4 Y224.4
M204 S1800
M205 X8 Y8
G1 F1800 X193.6 Y224.4 E85.89638
G1 X193.6 Y175.6 E87.51948
G1 X206.4 Y175.6 E87.9452
G1 X206.4 Y224.4 E89.5683
M204 S3000
M205 X10 Y10
G0 F4500 X206.8 Y224.8
M204 S1800
M205 X8 Y8
;TYPE:WALL-OUTER
G1 F1800 X193.2 Y224.8 E90.02064
G1 X193.2 Y175.2 E91.67034
G1 X206.8 Y175.2 E92.12268
